X:1
T:Title
L:1/4
M:4/4
I:linebreak $
K:D
V:1 treble+8 nm="Voice" snm="Voice"
V:1
 [Ed] e | f A f A | f e f/g/ f | g B g B | g/f/ [Ag] a g/f/ | f e [Gf] g |$ %6
[K:treble][K:bass] g [A,,G,] A, G,/=F,/ | =F, F,/F,/ F, A,,/B,,/ :| =C, C,/D,/ C,/B,,/ A,, | %9
 =F,, [A,,G,] =C,/=F,/ A, | =C, C,/D,/ C, [B,,B,] |$ E E [Fe] E | D [Fe] A/d/ f/d/ | %13
 g/f/ e/d/ c/A/ B/c/ | d d/d/ d d/e/ |] %15
